packages/icons/src/svg/36/user_circle_outline_36.svg

<svg fill="none" height="36" viewBox="0 0 36 36" width="36" xmlns="http://www.w3.org/2000/svg" xmlns:xlink="http://www.w3.org/1999/xlink"><clipPath id="a"><path d="m0 0h36v36h-36z"/></clipPath><g clip-path="url(#a)" clip-rule="evenodd" fill="currentColor" fill-rule="evenodd"><path d="m24 16c0 3.3137-2.6863 6-6 6s-6-2.6863-6-6 2.6863-6 6-6 6 2.6863 6 6zm-2.5 0c0 1.933-1.567 3.5-3.5 3.5s-3.5-1.567-3.5-3.5 1.567-3.5 3.5-3.5 3.5 1.567 3.5 3.5z"/><path d="m18 3c-4.1418 0-7.8935 1.6803-10.6066 4.3934s-4.3934 6.4648-4.3934 10.6066 1.6803 7.8935 4.3934 10.6066 6.4648 4.3934 10.6066 4.3934 7.8935-1.6803 10.6066-4.3934 4.3934-6.4648 4.3934-10.6066-1.6803-7.8935-4.3934-10.6066-6.4648-4.3934-10.6066-4.3934zm-8.83883 6.16117c2.26343-2.26343 5.38673-3.66117 8.83883-3.66117s6.5754 1.39774 8.8388 3.66117c2.2635 2.26343 3.6612 5.38673 3.6612 8.83883 0 3.398-1.3543 6.4774-3.5554 8.7318-2.5534-1.7247-5.6314-2.7318-8.9446-2.7318s-6.3912 1.0071-8.94461 2.7318c-2.20112-2.2544-3.55539-5.3338-3.55539-8.7318 0-3.4521 1.39774-6.5754 3.66117-8.83883zm15.76323 19.24753c-1.9825 1.3217-4.3629 2.0913-6.9244 2.0913s-4.9419-.7696-6.9244-2.0913c2.0246-1.212 4.3931-1.9087 6.9244-1.9087s4.8998.6967 6.9244 1.9087z"/></g></svg>

<svg xmlns="http://www.w3.org/2000/svg" width="36" height="36" viewBox="0 0 36 36" fill="currentColor"><path fill-rule="evenodd" d="M24 16a6 6 0 1 1-12 0 6 6 0 0 1 12 0m-2.5 0a3.5 3.5 0 1 1-7 0 3.5 3.5 0 0 1 7 0" clip-rule="evenodd"/><path fill-rule="evenodd" d="M18 3A14.96 14.96 0 0 0 7.393 7.393 14.96 14.96 0 0 0 3 18a14.96 14.96 0 0 0 4.393 10.607A14.96 14.96 0 0 0 18 33a14.96 14.96 0 0 0 10.607-4.393A14.96 14.96 0 0 0 33 18a14.96 14.96 0 0 0-4.393-10.607A14.96 14.96 0 0 0 18 3M9.161 9.161A12.46 12.46 0 0 1 18 5.5a12.46 12.46 0 0 1 8.839 3.661A12.46 12.46 0 0 1 30.5 18c0 3.398-1.354 6.477-3.555 8.732A15.93 15.93 0 0 0 18 24a15.93 15.93 0 0 0-8.945 2.732A12.46 12.46 0 0 1 5.5 18a12.46 12.46 0 0 1 3.661-8.839M24.924 28.41A12.44 12.44 0 0 1 18 30.5a12.44 12.44 0 0 1-6.924-2.091A13.44 13.44 0 0 1 18 26.5c2.531 0 4.9.697 6.924 1.909" clip-rule="evenodd"/></svg>
